storage/app/icons/phosphoricons/duotone/bookmarks-simple-duotone.svg

<svg xmlns="http://www.w3.org/2000/svg" fill="currentColor" viewBox="0 0 256 256"><path d="M168 72v152l-56-40-56 40V72a8 8 0 0 1 8-8h96a8 8 0 0 1 8 8" opacity=".2"/><path d="M160 56H64a16 16 0 0 0-16 16v152a8 8 0 0 0 12.65 6.51L112 193.83l51.36 36.68A8 8 0 0 0 176 224V72a16 16 0 0 0-16-16m0 152.46-43.36-31a8 8 0 0 0-9.3 0L64 208.45V72h96ZM208 40v152a8 8 0 0 1-16 0V40H88a8 8 0 0 1 0-16h104a16 16 0 0 1 16 16"/></svg>

<svg xmlns="http://www.w3.org/2000/svg" viewBox="0 0 256 256" fill="currentColor"><path d="M168,72V224l-56-40L56,224V72a8,8,0,0,1,8-8h96A8,8,0,0,1,168,72Z" opacity="0.2"/><path d="M160,56H64A16,16,0,0,0,48,72V224a8,8,0,0,0,12.65,6.51L112,193.83l51.36,36.68A8,8,0,0,0,176,224V72A16,16,0,0,0,160,56Zm0,152.46-43.36-31a8,8,0,0,0-9.3,0L64,208.45V72h96ZM208,40V192a8,8,0,0,1-16,0V40H88a8,8,0,0,1,0-16H192A16,16,0,0,1,208,40Z"/></svg>
